X: 5176
T: Brise Pied
R: polka
M: 2/4
K: Gmajor
|:D2E2 D2E2|D2GA B2G2|D2E2 D2E2|D2BA G4:|
|:BABc B2A2|AGAB A4|dedc BABc|1 B2A2 B4:|2 B2A2 G4||

